brandFactory_export/3.Masa/Chat_hablar_3Masa.svg

<?xml version="1.0" encoding="UTF-8"?>
<svg width="24px" height="24px" viewBox="0 0 24 24" version="1.1" xmlns="http://www.w3.org/2000/svg" xmlns:xlink="http://www.w3.org/1999/xlink">
    <title>3.Masa/Chat_hablar_3Masa</title>
    <g id="Symbols" stroke="none" stroke-width="1" fill="none" fill-rule="evenodd">
        <g id="3.Masa/Chat_hablar_3Masa" fill="#5CB615" fill-rule="nonzero">
            <path d="M20.1747899,1.01344538 L3.39831933,1.01344538 C1.52941176,1.01344538 0.00672268908,2.52605042 0.00672268908,4.38823529 L0.00672268908,15.9680672 C0.00672268908,17.6285714 1.11596639,18.9764706 2.63193277,19.2789916 L2.63193277,22.0991597 C2.63193277,22.7109244 3.21008403,23.2689076 3.84201681,23.2689076 C4.46386555,23.2689076 4.76638655,22.8655462 4.86722689,22.7310924 L7.51596639,19.3428571 L20.1747899,19.3428571 C22.0436975,19.3428571 23.5630252,17.8302521 23.5630252,15.9680672 L23.5630252,4.38487395 C23.5630252,2.52605042 22.0436975,1.01344538 20.1747899,1.01344538 Z M18.9378151,8.25714286 L4.61848739,8.25714286 C4.2487395,8.25714286 3.94621849,7.95462185 3.94621849,7.58487395 C3.94621849,7.21512605 4.2487395,6.91260504 4.61848739,6.91260504 L18.9378151,6.91260504 C19.307563,6.91260504 19.610084,7.21512605 19.610084,7.58487395 C19.610084,7.95462185 19.307563,8.25714286 18.9378151,8.25714286 Z M14.3495798,13.5008403 L4.61848739,13.5008403 C4.2487395,13.5008403 3.94621849,13.1983193 3.94621849,12.8285714 C3.94621849,12.4588235 4.2487395,12.1563025 4.61848739,12.1563025 L14.3495798,12.1563025 C14.7193277,12.1563025 15.0218487,12.4588235 15.0218487,12.8285714 C15.0218487,13.1983193 14.7193277,13.5008403 14.3495798,13.5008403 L14.3495798,13.5008403 Z" id="Chat_hablar_3Masa"></path>
        </g>
    </g>
</svg>

<svg width="24" height="24" viewBox="0 0 24 24" xmlns="http://www.w3.org/2000/svg"><path d="M20.175 1.013H3.398C1.53 1.013.007 2.526.007 4.388v11.58c0 1.66 1.109 3.008 2.625 3.311v2.82c0 .612.578 1.17 1.21 1.17.622 0 .924-.403 1.025-.538l2.649-3.388h12.659a3.384 3.384 0 003.388-3.375V4.385c0-1.859-1.52-3.372-3.388-3.372zm-1.237 7.244H4.618a.674.674 0 01-.672-.672c0-.37.303-.672.672-.672h14.32c.37 0 .672.302.672.672 0 .37-.302.672-.672.672zm-4.588 5.244H4.618a.674.674 0 01-.672-.672c0-.37.303-.673.672-.673h9.732c.37 0 .672.303.672.673 0 .37-.303.672-.672.672z" fill="#5CB615" fill-rule="nonzero"/></svg>
